src/16/panel/cisco-tray-reconnecting.svg

<svg xmlns="http://www.w3.org/2000/svg" width="16" height="16" version="1.1">
 <defs>
  <style id="current-color-scheme" type="text/css">
   .ColorScheme-Text { color:#dfdfdf; } .ColorScheme-Highlight { color:#5294e2; }
  </style>
 </defs>
 <path style="fill:currentColor" class="ColorScheme-Text" d="M 8 1 A 7 7 0 0 0 1.7871094 4.7871094 A 7 7 0 0 1 5 4 A 7 7 0 0 1 6.2597656 4.1171875 A 7 7 0 0 1 8.1074219 1.0058594 A 7 7 0 0 0 8 1 z M 9.4726562 1.1601562 A 6 6 0 0 0 7.2304688 4.375 A 7 7 0 0 1 11.0625 7.5234375 C 11.434009 7.230106 11.878167 7.0322943 12.367188 7.0039062 L 12.369141 7.0039062 L 12.371094 7.0039062 C 12.454082 6.9993963 12.536151 6.9993963 12.619141 7.0039062 C 13.46495 7.0484459 14.210234 7.5597281 14.601562 8.296875 L 14.931641 8.9199219 A 7 7 0 0 0 15 8 A 7 7 0 0 0 9.4726562 1.1601562 z M 5 5 A 6 6 0 0 0 1.203125 6.359375 A 7 7 0 0 0 1 8 A 7 7 0 0 0 8 15 A 7 7 0 0 0 8.5039062 14.972656 C 7.9662251 14.207115 7.820263 13.148625 8.3046875 12.236328 L 8.6953125 11.5 A 7 7 0 0 1 6 6 A 7 7 0 0 1 6.0664062 5.0996094 A 6 6 0 0 0 5 5 z M 7.0351562 5.3632812 A 6 6 0 0 0 7 6 A 6 6 0 0 0 9.1699219 10.605469 L 9.3496094 10.265625 L 10.369141 8.3476562 A 6 6 0 0 0 7.0351562 5.3632812 z M 12.425781 8.0019531 A 1.4078 1.5301 0 0 0 11.28125 8.765625 L 10.234375 10.734375 L 9.1894531 12.705078 A 1.4078 1.5301 0 0 0 10.40625 15 L 12.5 15 L 14.591797 15 A 1.4078 1.5301 0 0 0 15.810547 12.705078 L 14.763672 10.734375 L 13.71875 8.765625 A 1.4078 1.5301 0 0 0 12.566406 8.0019531 A 1.4078 1.5301 0 0 0 12.425781 8.0019531 z M 12 9 L 13 9 L 13 12 L 12 12 L 12 9 z M 12 13 L 13 13 L 13 14 L 12 14 L 12 13 z"/>
</svg>

<svg xmlns="http://www.w3.org/2000/svg" width="16" height="16"><defs><style id="current-color-scheme" type="text/css"></style></defs><path d="M8 1a7 7 0 0 0-6.213 3.787A7 7 0 0 1 5 4a7 7 0 0 1 1.26.117 7 7 0 0 1 1.847-3.111A7 7 0 0 0 8 1zm1.473.16A6 6 0 0 0 7.23 4.375a7 7 0 0 1 3.832 3.148 2.324 2.324 0 0 1 1.305-.52h.004c.083-.004.165-.004.248 0 .846.045 1.591.557 1.983 1.294l.33.623A7 7 0 0 0 15 8a7 7 0 0 0-5.527-6.84zM5 5a6 6 0 0 0-3.797 1.36A7 7 0 0 0 1 8a7 7 0 0 0 7 7 7 7 0 0 0 .504-.027c-.538-.766-.684-1.824-.2-2.737l.391-.736A7 7 0 0 1 6 6a7 7 0 0 1 .066-.9A6 6 0 0 0 5 5zm2.035.363A6 6 0 0 0 7 6a6 6 0 0 0 2.17 4.605l.18-.34 1.02-1.917a6 6 0 0 0-3.335-2.985zm5.39 2.639a1.408 1.53 0 0 0-1.144.764l-1.047 1.968-1.045 1.971A1.408 1.53 0 0 0 10.406 15h4.186a1.408 1.53 0 0 0 1.219-2.295l-1.047-1.97-1.045-1.97a1.408 1.53 0 0 0-1.153-.763 1.408 1.53 0 0 0-.14 0zM12 9h1v3h-1V9zm0 4h1v1h-1v-1z" fill="currentColor" color="#dfdfdf"/></svg>
